!!!COM: Anonymous
!!!CDT: [?]
!!!OTL@@POL: Tobie nad pomysł
!!!TXO: Polish
!!!ODT: 
!!!GTL: Hymnbook E
!!!ARL: Opactwo św. Wojciecha, Staniątki 
!!!voices:	4
**kern	**kern	**text	**text	**kern	**text	**text	**kern	**text	**text
*staff4	*staff3	*staff3	*staff3	*staff2	*staff2	*staff2	*staff1	*staff1	*staff1
*I"Basso	*I"Canto III	*	*	*I"Canto II	*	*	*I"Canto I	*	*
=1-	=1-	=1-	=1-	=1-	=1-	=1-	=1-	=1-	=1-
*clefGv2	*clefG2	*	*	*clefG2	*	*	*clefG2	*	*
*k[]	*k[]	*	*	*k[]	*	*	*k[]	*	*
*met(c|)	*met(c|)	*	*	*met(c|)	*	*	*met(c|)	*	*
*M2/2	*M2/2	*	*	*M2/2	*	*	*M2/2	*	*
2.d\	1f	To-	Zja-	1a	To-	Zja-	1dd	To-	Zja-
4c\	.	.	.	.	.	.	.	.	.
=2	=2	=2	=2	=2	=2	=2	=2	=2	=2
2B\	2g/	-bie	-wia-	2b\	-bie	-wia-	2dd\	-bie	-wia-
2A/	[2a/	nad	-my	2cc\	nad	-my	2cc\	nad	-my
=3	=3	=3	=3	=3	=3	=3	=3	=3	=3
1c	4a/]	.	.	2a/	po-	Pan-	1ee	po-	Pan-
.	4g/	.	.	.	.	.	.	.	.
.	[2g/	po-	Pan-	4cc\	.	.	.	.	.
.	.	.	.	4b\	.	.	.	.	.
=4	=4	=4	=4	=4	=4	=4	=4	=4	=4
1d	2g/]	.	.	4a/	.	.	1dd	-mysł	-no
.	.	.	.	4g/	.	.	.	.	.
.	2f#i/	-mysł	-no	2a/	-mysł	-no	.	.	.
=5	=5	=5	=5	=5	=5	=5	=5	=5	=5
1e	1g#	do-	rzecz	1g#i	do-	rzecz	1b	do-	rzecz
=6	=6	=6	=6	=6	=6	=6	=6	=6	=6
2A/	2e/	-wcip	Ga-	2a/	-wcip	Ga-	2cc#\	-wcip	Ga-
2d\	2f/	i	-bry-	2a/	i	-bry-	4dd\	i	-bry-
.	.	.	.	.	.	.	4ff\	.	.
=7	=7	=7	=7	=7	=7	=7	=7	=7	=7
1G	2.g/	wy-	-je-	1b-	wy-	-je-	4ee\	wy-	-je-
.	.	.	.	.	.	.	4dd\	.	.
.	.	.	.	.	.	.	[2dd\	-mo-	-lo-
.	4f/	.	.	.	.	.	.	.	.
=8	=8	=8	=8	=8	=8	=8	=8	=8	=8
1A	4f/	-mo-	-lo-	1a	-mo-	-lo-	2dd\]	.	.
.	4e/	.	.	.	.	.	.	.	.
.	2e/	.	.	.	.	.	2cc#\	.	.
=9	=9	=9	=9	=9	=9	=9	=9	=9	=9
1d	1d	-wę	-wę	1f#	-wę	-wę	1dd	-wę	-wę
=10:|!	=10:|!	=10:|!	=10:|!	=10:|!	=10:|!	=10:|!	=10:|!	=10:|!	=10:|!
1d	1f	Sło-	.	1a	Sło-	.	1dd	Sło-	.
=11	=11	=11	=11	=11	=11	=11	=11	=11	=11
2c\	2g/	-wem	.	2cc\	-wem	.	2ee\	-wem	.
2c\	2g/	nie-	.	2cc\	nie-	.	2ee\	nie-	.
=12	=12	=12	=12	=12	=12	=12	=12	=12	=12
1f	1a	-zwy-	.	1cc	-zwy-	.	1ff	-zwy-	.
=13	=13	=13	=13	=13	=13	=13	=13	=13	=13
1c	1g	-kłym	.	1cc	-kłym	.	1ee	-kłym	.
=14	=14	=14	=14	=14	=14	=14	=14	=14	=14
2.d\	2.f/	no-	.	2.a/	no-	.	2.dd\	no-	.
4d\	4f/	-wi-	.	4a/	-wi-	.	4dd\	-wi-	.
=15	=15	=15	=15	=15	=15	=15	=15	=15	=15
2G/	2g/	-ny	.	2b-\	-ny	.	2dd\	-ny	.
2A/	2e/	od	.	2a/	od	.	2cc#\	od	.
=16	=16	=16	=16	=16	=16	=16	=16	=16	=16
1B-	1d	Pa-	.	2a/	Pa-	.	1dd	Pa-	.
.	.	.	.	2g#/	.	.	.	.	.
=17	=17	=17	=17	=17	=17	=17	=17	=17	=17
1A	1e	-na	.	1a	-na	.	1cc#	-na	.
=18	=18	=18	=18	=18	=18	=18	=18	=18	=18
1A	2.e/	Bądź	.	1a	Bądź	.	2.cc#i\	Bądź	.
.	4f/	.	.	.	.	.	4dd\	.	.
=19	=19	=19	=19	=19	=19	=19	=19	=19	=19
2G/	4g/	po-	.	2b-\	po-	.	4ee\	po-	.
.	4f/	.	.	.	.	.	4dd\	.	.
2B-\	4f/	-zdro-	.	2g/	-zdro-	.	[2dd\	-zdro-	.
.	4e/	.	.	.	.	.	.	.	.
=20	=20	=20	=20	=20	=20	=20	=20	=20	=20
1A	1e	-wio-	.	1a	-wio-	.	2dd\]	.	.
.	.	.	.	.	.	.	2cc#\	-wio-	.
=21	=21	=21	=21	=21	=21	=21	=21	=21	=21
[1D	[1d	-na.	.	[1a	-na.	.	[1dd	-na.	.
=22	=22	=22	=22	=22	=22	=22	=22	=22	=22
1D]	1d]	.	.	1a]	.	.	1dd]	.	.
==	==	==	==	==	==	==	==	==	==
*-	*-	*-	*-	*-	*-	*-	*-	*-	*-
!!!GTL: Hymnbook E
!!!EFL: 13/117
!!!YEM: Creative Commons CC/BY/NC/SA 4.0
!!!ENC: Marcin Konik
!!!END: 
!!!EED: Marcin Konik
!!!EEV: 
!!!ONB: Translated from MusicXML and edited by Marcin Konik
!!!CharacterEncoding: utf-8
!!!RDF**kern: l=long note in original notation
!!!RDF**kern: i=editorial accidental
!!muse2ps: z14jc180F
